X:18555
T:Weavers
R:Jig
D:From a Chieftains Album
Z:Added by alf.warnock@nrc.ca
M:6/8
L:1/8
K:D
g|fed B2d|A2d F2B|A2F E2D|EFE E2g|
fed B2d|A2d F2B|A2F E2F|DED D2:|
A|d2e f2f|gfe f2f|gfe fed|efe e2A|
d2e f2f|gfe f2a/a/|a2f efe|ded d2:|


